!!!!SEGMENT: pl-gd--ee-1638--008-007_marenzio-luca--il-quarto-libro-de-madrigalia-a-sei-voci-per-piu-gradirla.krn
!!!cenid: 15xx:869
!!!COM: Marenzio, Luca
!!!COM-rismID: pe30003955
!!!CDT: ~1553-1599/08/22
!!!CNT: Italian
!!!GTL: Il Quarto Libro de madrigalia a sei voci
!!!OTL: Per più gradirla
!!!OMV: 007
!!!PDT: 1587
!!!AGN:
!!!SMS-siglum: PL-GD
!!!SMS-shelfmark: Ee 1638
!!!SMS-variant:
!!!SMS-altvar:
!!!SMS-shelfwork: 008-007 G
!!!NIFC-rismSourceID: 990039254
!!!NIFC-islandoraID: pl-gd:57883
!!!URL-pdf-islandora: https://repozytorium.nifc.pl/islandora/object/pl-gd%3A57883/datastream/PDF/view
!!!URL-scan: https://polish.musicsources.pl/pl/lokalizacje/galeria/klocki-introligatorskie/655 @EN{Scan on Polish Music Herritage in Open Access Website} @PL{Skany w portalu Dziedzictwo Muzyki Polskiej w otwartym dostępie}
!!!ONB-nifc: UWAGA: zbiór na stronach: Canto: s. 706-716, Alto: s. 554-564, Tenore: s. 402-412, Basso: s.250-260, Quinto: s. 98-108, Sesto: s. 16-26. Uwaga: utwory podzielone wg tytułów w spisach treści dostępnych na końcu każdej księgi głosowej.
!!!Key: d:dor
!!!AIN: 1 alt 1 bass 2 soprn 2 tenor
!!!key:
**kern	**text	**kern	**text	**kern	**text	**kern	**text	**kern	**text	**kern	**text
*part6	*part6	*part5	*part5	*part4	*part4	*part3	*part3	*part2	*part2	*part1	*part1
*staff6	*staff6	*staff5	*staff5	*staff4	*staff4	*staff3	*staff3	*staff2	*staff2	*staff1	*staff1
*I"SESTO	*	*I"QUINTO	*	*I"BASSO	*	*I"TENORE	*	*I"ALTO	*	*I"CANTO	*
*I'voce umana 2	*	*I'voce umana 1	*	*I'B	*	*I'T	*	*I'A	*	*I'S	*
*Itenor	*	*Isoprn	*	*Ibass	*	*Itenor	*	*Ialt	*	*Isoprn	*
*ICvox	*	*ICvox	*	*ICvox	*	*ICvox	*	*Cvox	*	*ICvox	*
*clefC3	*	*clefG2	*	*clefF3	*	*clefC3	*	*clefC2	*	*clefG2	*
*k[]	*	*k[]	*	*k[]	*	*k[]	*	*k[]	*	*k[]	*
*C:	*	*C:	*	*C:	*	*C:	*	*C:	*	*C:	*
*M2/1	*	*M2/1	*	*M2/1	*	*M2/1	*	*M2/1	*	*M2/1	*
*met(c)	*	*	*	*	*	*	*	*	*	*	*
=1-	=1-	=1-	=1-	=1-	=1-	=1-	=1-	=1-	=1-	=1-	=1-
!LO:TX:a:t=Seconda parte.	!	!	!	!	!	!	!	!	!	!	!
*	*	*met(c)	*	*	*	*	*	*	*	*	*
!	!	!LO:TX:a:t=Seconda parte.	!	!	!	!	!	!	!	!	!
*	*	*	*	*met(c)	*	*	*	*	*	*	*
!	!	!	!	!LO:TX:a:t=Seconda parte.	!	!	!	!	!	!	!
!	!	!	!	!LO:TX:b:t=PEr più,	!	!	!	!	!	!	!
*	*	*	*	*	*	*met(c)	*	*	*	*	*
!	!	!	!	!	!	!LO:TX:a:t=Seconda parte.	!	!	!	!	!
*	*	*	*	*	*	*	*	*met(c)	*	*	*
!	!	!	!	!	!	!	!	!LO:TX:a:t=Seconda parte.	!	!	!
*	*	*	*	*	*	*	*	*	*	*met(c)	*
!	!	!	!	!	!	!	!	!	!	!LO:TX:a:t=Seconda parte.	!
0r	.	00r	.	00r	.	2r	.	2d/	PEr	1r	.
.	.	.	.	.	.	2G/	PEr	4g\	più	.	.
.	.	.	.	.	.	.	.	4g\	gra-	.	.
.	.	.	.	.	.	4d\	più	2a\	-dir-	2r	.
.	.	.	.	.	.	4d\	gra-	.	.	.	.
.	.	.	.	.	.	2e\	-dir-	2g\	-la	4r	.
.	.	.	.	.	.	.	.	.	.	4g/	PEr
=2-	=2-	=2-	=2-	=2-	=2-	=2-	=2-	=2-	=2-	=2-	=2-
1r	.	.	.	.	.	2d\	-la	8f\	co	4dd\	più
.	.	.	.	.	.	.	.	8g\	laſ-	.	.
.	.	.	.	.	.	.	.	8a\	-ciui	4dd\	gra-
.	.	.	.	.	.	.	.	8b\	A-	.	.
.	.	.	.	.	.	4r	.	4.cc\	-mo-	2ee\	-dir-
.	.	.	.	.	.	4c/	Per	.	.	.	.
.	.	.	.	.	.	.	.	16b\	.	.	.
.	.	.	.	.	.	.	.	16a\	.	.	.
4r	.	.	.	.	.	4g\	più	8b\	.	1dd	-la
.	.	.	.	.	.	.	.	8a\	.	.	.
4G/	PEr	.	.	.	.	4g\	gra-	2g\	.	.	.
4d\	più	.	.	.	.	2a\	-dir-	.	.	.	.
4d\	gra-	.	.	.	.	.	.	4f#X\	-ri	.	.
=3-	=3-	=3-	=3-	=3-	=3-	=3-	=3-	=3-	=3-	=3-	=3-
!	!	!	!	!	!	!	!	!LO:SIC:v:t=custos g	!	!	!
2e\	-dir-	4r	.	00r	.	2g\	-la	1r	.	8b/	co
.	.	.	.	.	.	.	.	.	.	8a/	laſ-
.	.	4g/	PEr	.	.	.	.	.	.	8b/	-ciui
.	.	.	.	.	.	.	.	.	.	8g/	A-
2d\	-la	4dd\	più	.	.	8f\	co	.	.	4.a/	-mo-
.	.	.	.	.	.	8g\	laſ-	.	.	.	.
.	.	4dd\	gra-	.	.	8a\	-ciui	.	.	.	.
.	.	.	.	.	.	8f\	A-	.	.	8b/	.
!	!	!	!	!	!	!	!	!LO:LB:g=original	!	!	!
8c\	co	2ee\	-dir-	.	.	2g\	-mo-	4r	.	2cc\	.
8d\	laſ-	.	.	.	.	.	.	.	.	.	.
8e\	-ciui	.	.	.	.	.	.	4.g\	co	.	.
8f\	A-	.	.	.	.	.	.	.	.	.	.
!	!	!	!	!	!	!LO:SIC:v:t=custos G	!	!	!	!	!
1g\	-mo-	2dd\	-la	.	.	2G/	-ri	.	.	2b/	-ri
.	.	.	.	.	.	.	.	8a\	laſ-	.	.
.	.	.	.	.	.	.	.	8b\	-ciui	.	.
.	.	.	.	.	.	.	.	8cc\	A-	.	.
=4-	=4-	=4-	=4-	=4-	=4-	=4-	=4-	=4-	=4-	=4-	=4-
!	!	!	!	!	!	!LO:LB:g=original	!	!	!	!	!
.	.	8g/	co	.	.	4r	.	4.dd\	-mo-	1r	.
.	.	8a/	laſ-	.	.	.	.	.	.	.	.
.	.	8b/	-ciui	.	.	4G/	Per	.	.	.	.
.	.	8cc\	A-	.	.	.	.	16cc\	.	.	.
.	.	.	.	.	.	.	.	16b\	.	.	.
2f#X\	-ri	4.dd\	-mo-	.	.	4d\	più	2a\	.	.	.
.	.	.	.	.	.	4d\	gra-	.	.	.	.
.	.	8cc\	.	.	.	.	.	.	.	.	.
1r	.	4.b/	.	.	.	2e\	-dir-	2g\	-ri	4r	.
!	!	!	!	!	!	!	!	!	!	!LO:SIC:v:t=custos dd	!
.	.	.	.	.	.	.	.	.	.	4g/	Per
.	.	16a/	.	.	.	.	.	.	.	.	.
.	.	16g/	.	.	.	.	.	.	.	.	.
!	!	!	!	!	!	!	!	!	!	!LO:LB:g=original	!
.	.	4.a/	.	.	.	2d\	-la	2r	.	4dd\	più
.	.	.	.	.	.	.	.	.	.	4dd\	gra-
!	!	!LO:SIC:v:t=custos cc	!	!	!	!	!	!	!	!	!
.	.	8b/	.	.	.	.	.	.	.	.	.
=5-	=5-	=5-	=5-	=5-	=5-	=5-	=5-	=5-	=5-	=5-	=5-
1r	.	2cc\	.	00r	.	8c/	co	4r	.	2ee\	-dir-
.	.	.	.	.	.	8d\	laſ-	.	.	.	.
.	.	.	.	.	.	8e\	-ciui	4.g\	co	.	.
.	.	.	.	.	.	8f\	A-	.	.	.	.
.	.	2b/	-ri	.	.	1g	-mo-	.	.	2dd\	-la
.	.	.	.	.	.	.	.	8a\	laſ-	.	.
.	.	.	.	.	.	.	.	8b\	-ciui	.	.
.	.	.	.	.	.	.	.	8cc\	A-	.	.
4r	.	4.b/	co	.	.	.	.	4.dd\	-mo-	8g/	co
.	.	.	.	.	.	.	.	.	.	8a/	laſ-
4.G/	co	.	.	.	.	.	.	.	.	8b/	-ciui
.	.	8a/	laſ-	.	.	.	.	8cc\	.	8cc\	A-
.	.	4g/	-ciui	.	.	2d\	-ri	4.b\	.	4.dd\	-mo-
8A/	laſ-	.	.	.	.	.	.	.	.	.	.
8B/	-ciui	4dd\	A-	.	.	.	.	.	.	.	.
!LO:SIC:v:t=custos d	!	!	!	!	!	!	!	!	!	!	!
8c/	A	.	.	.	.	.	.	16a\	.	16cc\	.
.	.	.	.	.	.	.	.	16g\	.	16b\	.
=6-	=6-	=6-	=6-	=6-	=6-	=6-	=6-	=6-	=6-	=6-	=6-
!LO:LB:g=original	!	!	!	!	!	!	!	!	!	!	!
1d	-mo-	1dd	-mo-	.	.	0r	.	4f#X\	.	4a/	.
.	.	.	.	.	.	.	.	2g\	.	4g/	.
.	.	.	.	.	.	.	.	.	.	2a/	.
.	.	.	.	.	.	.	.	4f#X\	.	.	.
1G	-ri	0dd	-ri	.	.	.	.	0g	-(ri)	0b	-ri
=7-	=7-	=7-	=7-	=7-	=7-	=7-	=7-	=7-	=7-	=7-	=7-
!	!	!	!	!	!	!	!	!LO:SIC:v:t=custos g	!	!	!
1d	Le	.	.	1G	Le	2r	.	.	.	.	.
.	.	.	.	.	.	2B/	Le	.	.	.	.
2d\	gra-	1r	.	2F#X/	gra-	2A/	gra-	1r	.	1r	.
2d\	-tie aſ-	.	.	2G\	-tie aſ-	2B/	-tie aſ-	.	.	.	.
=8-	=8-	=8-	=8-	=8-	=8-	=8-	=8-	=8-	=8-	=8-	=8-
!	!	!	!	!	!	!	!	!LO:LB:g=original	!	!	!
1e	-ſi-	0r	.	1C	-ſi-	1c	-ſi-	0r	.	0r	.
4e\	-ſe	.	.	4C/	-ſe	4c/	-ſe	.	.	.	.
4g\	sù	.	.	4c\	sù	4e\	sù	.	.	.	.
4g\	l`her-	.	.	4c\	l`her-	4e\	l`her-	.	.	.	.
8g\	-ba	.	.	8B\	-ba	8d\	-ba	.	.	.	.
!	!	!	!	!	!	!LO:SIC:v:t=custos d	!	!	!	!	!
8f#X\	no-	.	.	8A\	no-	8c/	no-	.	.	.	.
=9-	=9-	=9-	=9-	=9-	=9-	=9-	=9-	=9-	=9-	=9-	=9-
2g\	-vel-	2r	.	2G\	-vel-	2d\	-vel-	2r	.	2r	.
2d\	-la	4r	.	2G\	-la	2B/	-la	2g\	Le	4r	.
.	.	4b/	Le	.	.	.	.	.	.	4dd\	Le
1r	.	2a/	gra-	1r	.	1r	.	2f#X\	gra-	2dd\	gra-
.	.	2b/	-tie aſ-	.	.	.	.	2g\	-tie aſ-	2dd\	-tie aſ-
=10-	=10-	=10-	=10-	=10-	=10-	=10-	=10-	=10-	=10-	=10-	=10-
!	!	!	!	!LO:SIC:v:t=custos G	!	!	!	!	!	!	!
!	!	!	!	!LO:LB:g=original	!	!	!	!	!	!	!
0r	.	1cc	-ſi-	0r	.	0r	.	1c	-ſi-	1ee	-ſi-
!	!	!	!	!	!	!	!	!	!	!LO:SIC:v:t=custos gg	!
.	.	4cc\	-ſe	.	.	.	.	4c/	-ſe	2ee\	-ſe
.	.	4ee\	sù	.	.	.	.	4cc\	sù	.	.
!	!	!	!	!	!	!	!	!	!	!LO:LB:g=original	!
.	.	4ee\	l`her-	.	.	.	.	4cc\	l`her-	4r	.
.	.	8dd\	-ba	.	.	.	.	8b\	-ba	4gg\	sù
.	.	8cc\	no-	.	.	.	.	8a\	no-	.	.
=11-	=11-	=11-	=11-	=11-	=11-	=11-	=11-	=11-	=11-	=11-	=11-
2r	.	2b/	-vel-	2r	.	1r	.	2g\	-vel-	4gg\	l`her-
.	.	.	.	.	.	.	.	.	.	8ff\	-ba
.	.	.	.	.	.	.	.	.	.	8ee\	no-
4r	.	4b/	-la	4r	.	.	.	2g\	-la	4dd\	-vel-
!	!	!LO:SIC:v:t=custos cc	!	!	!	!	!	!	!	!	!
4g\	Di-	4b/	Di-	4G\	Di-	.	.	.	.	4dd\	-la
!	!	!LO:LB:g=original	!	!	!	!	!	!	!	!	!
2e\	-cean	2cc\	-cean	2c\	-cean	4r	.	4r	.	4r	.
.	.	.	.	.	.	4c/	Di-	4g\	Di-	4ee\	Di-
4r	.	2r	.	4r	.	4f\	-cean	4a\	-cean	4ff\	-cean
4B/	Di-	.	.	4G\	Di-	4g\	can-	4b\	can-	4dd\	can-
=12-	=12-	=12-	=12-	=12-	=12-	=12-	=12-	=12-	=12-	=12-	=12-
2e\	-cean	4r	.	4c\	-cean	4g\	-tan-	8cc\	-tan-	8ee\	-tan-
.	.	.	.	.	.	.	.	8b\	.	8dd\	.
.	.	4ee\	Di-	4c\	can-	4e\	-do	8a\	.	8cc\	.
.	.	.	.	.	.	.	.	8g\	.	8b\	.
!LO:SIC:v:t=custos g	!	!	!	!	!	!	!	!	!	!	!
2r	.	4ff\	-cean	2d\	-tan-	4r	.	4fny\	.	4a/	.
.	.	4dd\	can-	.	.	4G/	Di-	4g\	-do	4b/	.
!	!	!	!	!	!	!	!	!LO:SIC:v:t=custos g	!	!	!
!LO:LB:g=original	!	!	!	!	!	!	!	!	!	!	!
4r	.	8ee\	-tan-	2c\	-do	4c/	-cean	1r	.	4cc\	-do
.	.	8dd\	.	.	.	.	.	.	.	.	.
4g\	Di-	8cc\	.	.	.	4c/	can-	.	.	4ee\	Di-
.	.	8b\	.	.	.	.	.	.	.	.	.
4d\	-cean	4a/	.	4r	.	2d\	-tan-	.	.	4ff\	-cean
4g\	can-	4b/	.	4G\	Di-	.	.	.	.	4dd\	can-
=13-	=13-	=13-	=13-	=13-	=13-	=13-	=13-	=13-	=13-	=13-	=13-
!	!	!	!	!	!	!	!	!LO:LB:g=original	!	!	!
4g\	-tan-	4cc\	-do	4c\	-cean	2c/	-do	4r	.	8ee\	-tan-
.	.	.	.	.	.	.	.	.	.	8dd\	.
4e\	-do	4ee\	Di-	4c\	can-	.	.	4g\	Di-	8cc\	.
!	!	!	!	!	!	!	!	!	!	!LO:SIC:v:t=custos a	!
.	.	.	.	.	.	.	.	.	.	8b\	.
!	!	!	!	!	!	!	!	!	!	!LO:LB:g=original	!
2r	.	4ff\	-cean	2d\	-tan-	4r	.	4d/	-cean	4a/	.
.	.	4dd\	can-	.	.	4G/	Di-	4g\	can-	4b/	.
4r	.	8ee\	-tan-	2c\	-do	4c/	-cean	4g\	-tan-	2cc\	-do
.	.	8dd\	.	.	.	.	.	.	.	.	.
4g\	Di-	8cc\	.	.	.	4c/	can-	4e/	-do	.	.
.	.	8b/	.	.	.	.	.	.	.	.	.
4f#X\	-cean	4a/	.	4r	.	2d\	-tan-	4r	.	4r	.
!	!	!LO:SIC:v:t=custos cc	!	!	!	!	!	!	!	!	!
4g\	can-	4b/	-do al	4G\	al	.	.	4B/	al	4gg\	al
=14-	=14-	=14-	=14-	=14-	=14-	=14-	=14-	=14-	=14-	=14-	=14-
!	!	!LO:LB:g=original	!	!	!	!	!	!	!	!	!
4g\	-tan-	4.cc\	por-	4.c\	por-	2c/	-do	4.e/	por-	4.ee\	por-
4g\	-do	.	.	.	.	.	.	.	.	.	.
.	.	8cc\	-ta-	8c\	-ta-	.	.	8e/	-ta-	8ee\	-ta-
2r	.	4cc\	-tor	4c\	-tor	2r	.	4g\	-tor	4ee\	-tor
.	.	4a/	del	4d\	del	.	.	4f\	del	2dd\	del
1r	.	1a	gior-	1A	gior-	1r	.	1e	gior-	.	.
.	.	.	.	.	.	.	.	.	.	8cc#X\	gior-
.	.	.	.	.	.	.	.	.	.	8b\	.
.	.	.	.	.	.	.	.	.	.	2cc#X\	.
=15-	=15-	=15-	=15-	=15-	=15-	=15-	=15-	=15-	=15-	=15-	=15-
!	!	!	!	!LO:SIC:v:t=custos G	!	!	!	!	!	!	!
2r	.	1a	-no	1D	-no	1r	.	1f#X	-no	1dd	-no
1d	Ri-	.	.	.	.	.	.	.	.	.	.
!	!	!	!	!	!	!LO:SIC:v:t=custos B	!	!	!	!	!
!	!	!	!	!LO:LB:g=original	!	!	!	!	!	!	!
.	.	1b	Ri-	1G	Ri-	1B	Ri-	1g	Ri-	1r	.
1d\	-tien	.	.	.	.	.	.	.	.	.	.
=16-	=16-	=16-	=16-	=16-	=16-	=16-	=16-	=16-	=16-	=16-	=16-
!	!	!	!	!	!	!LO:LB:g=original	!	!	!	!	!
.	.	1b	-tien	1G	-tien	1B	-tien	1g	-tien	1gg	Ri-
1g	Ri-	.	.	.	.	.	.	.	.	.	.
.	.	1cc	Ri-	1c	Ri-	2r	.	1e	Ri-	1gg	-tien
1g\	-tien	.	.	.	.	2e\	Ri-	.	.	.	.
=17-	=17-	=17-	=17-	=17-	=17-	=17-	=17-	=17-	=17-	=17-	=17-
.	.	1ee	-tien	1c	-tien	1e	-tien	1cc	-tien	2gg\	i-
2g\	in-	.	.	.	.	.	.	.	.	4gg\	-nui-
.	.	.	.	.	.	.	.	.	.	4gg\	-do
4g\	-ui-	2r	.	2c\	in-	2e\	in-	2r	.	1gg	Sol
!LO:SIC:v:t=custos g	!	!	!	!	!	!	!	!	!	!	!
4g\	-do	.	.	.	.	.	.	.	.	.	.
!LO:LB:g=original	!	!	!	!	!	!	!	!	!	!	!
2g\	Sol	2gg\	in-	4c\	-ui-	4e\	-ui-	2cc\	in-	.	.
.	.	.	.	4c\	-do	4e\	-do	.	.	.	.
=18-	=18-	=18-	=18-	=18-	=18-	=18-	=18-	=18-	=18-	=18-	=18-
4r	.	4gg\	-ui-	2c\	Sol	2e\	Sol	4g\	-ui-	4r	.
4c/	gl`ufa-	4gg\	-do	.	.	.	.	4g\	-do	4ee\	gl`uſa-
4G/	-ti	4gg\	Sol	4r	.	2r	.	2g\	Sol	4dd\	-ti
!	!	!	!	!	!	!	!	!	!	!LO:SIC:v:t=custos b	!
4g\	er-	4ee\	gl`uſa-	4c\	gl`uſa-	.	.	.	.	4ccny\	er-
!	!	!	!	!	!	!	!	!LO:SIC:v:t=custos g	!	!	!
!	!	!	!	!	!	!	!	!	!	!LO:LB:g=original	!
8g\	-ro-	4dd\	-ti	4G\	-ti	4r	.	1r	.	4b/	-ro-
8fny\	.	.	.	.	.	.	.	.	.	.	.
8e\	.	4cc\	er-	4A\	er-	4c/	gl`uſa-	.	.	4ee\	-ri
8f\	.	.	.	.	.	.	.	.	.	.	.
2g\	.	4b/	-ro-	4.E/	-ro-	4G/	-ti	.	.	4r	.
!	!	!LO:SIC:v:t=custos gg	!	!	!	!	!	!	!	!	!
.	.	4ee\	-ri	.	.	4c/	er-	.	.	4gg\	gl`uſa-
.	.	.	.	8Fny/	.	.	.	.	.	.	.
=19-	=19-	=19-	=19-	=19-	=19-	=19-	=19-	=19-	=19-	=19-	=19-
2g\	ri	4r	.	0G	.	4.B/	-ro-	4r	.	4dd\	-ti
!	!	!	!	!	!	!	!	!LO:LB:g=original	!	!	!
!	!	!LO:LB:g=original	!	!	!	!	!	!	!	!	!
.	.	4gg\	gli ufa-	.	.	.	.	4g\	gl`uſa-	4ee\	er-
.	.	.	.	.	.	8c/	.	.	.	.	.
2G/	er-	4dd\	-ti	.	.	8d\	.	4g\	-ti	4.b/	-ro-
.	.	.	.	.	.	8c/	.	.	.	.	.
.	.	4ee\	er-	.	.	8B/	.	4g\	er-	.	.
.	.	.	.	.	.	8A/	.	.	.	8cc\	.
4.d\	-ri-	4.b/	-ro-	.	.	4.G/	.	1g	-ro-	8dd\	.
.	.	.	.	.	.	.	.	.	.	8cc\	.
.	.	.	.	.	.	.	.	.	.	8b/	.
8c/	.	8cc\	.	.	.	8A/	.	.	.	8a/	.
8B/	.	8dd\	.	.	.	8B/	.	.	.	8g/	.
8A/	.	8cc\	.	.	.	8c/	.	.	.	8a/	.
8G/	.	8b/	.	.	.	4d\	.	.	.	8b/	.
8A/	.	8a/	.	.	.	.	.	.	.	8cc\	.
=20-	=20-	=20-	=20-	=20-	=20-	=20-	=20-	=20-	=20-	=20-	=20-
!	!	!	!	!	!	!LO:SIC:v:t=custos B	!	!	!	!	!
8B/	.	8g/	.	1G	-ri	0d	-ri	2g\	-ri	4dd\	.
8c/	.	8a/	.	.	.	.	.	.	.	.	.
4d\	.	8b/	.	.	.	.	.	.	.	4dd\	-ri
.	.	8cc\	.	.	.	.	.	.	.	.	.
2B/	-ri	4dd\	.	.	.	.	.	2d/	Qui	2r	.
.	.	4dd\	-ri	.	.	.	.	.	.	.	.
4r	.	1r	.	1D	Qui	.	.	1fny	mi-	1dd	Qui
!LO:SIC:v:t=custos B	!	!	!	!	!	!	!	!	!	!	!
4A/	Qui	.	.	.	.	.	.	.	.	.	.
!LO:LB:g=original	!	!	!	!	!	!	!	!	!	!	!
1B/	mi-	.	.	.	.	.	.	.	.	.	.
=21-	=21-	=21-	=21-	=21-	=21-	=21-	=21-	=21-	=21-	=21-	=21-
!	!	!	!	!	!	!LO:LB:g=original	!	!	!	!	!
.	.	1gg	Qui	1E	mi-	2r	.	1e	-ra	1b	mi-
2e\	-ra	.	.	.	.	4r	.	.	.	.	.
.	.	.	.	.	.	4B/	Qui	.	.	.	.
4r	.	1ee	mi-	1A	-ra	1c#X	mi-	2r	.	1a	-ra
4e\	Qui	.	.	.	.	.	.	.	.	.	.
2.a\	mi-	.	.	.	.	.	.	4r	.	.	.
.	.	.	.	.	.	.	.	4e/	Qui	.	.
=22-	=22-	=22-	=22-	=22-	=22-	=22-	=22-	=22-	=22-	=22-	=22-
.	.	0dd	-ra	1d	Qui	2d\	-ra	4f\	mi-	2r	.
4g\	.	.	.	.	.	.	.	4g\	.	.	.
4f\	.	.	.	.	.	2r	.	2.a\	.	2a/	Qui
4e\	.	.	.	.	.	.	.	.	.	.	.
1d	.	.	.	1B	mi-	1r	.	.	.	1b	mi-
.	.	.	.	.	.	.	.	8g\	.	.	.
.	.	.	.	.	.	.	.	8f#X\	.	.	.
.	.	.	.	.	.	.	.	2g#X\	.	.	.
=23-	=23-	=23-	=23-	=23-	=23-	=23-	=23-	=23-	=23-	=23-	=23-
!	!	!	!	!	!	!	!	!	!	!LO:SIC:v:t=custos cc	!
4.c/	-ra	4r	.	2A\	-ra &	2r	.	1a	-ra	2ee\	-ra
.	.	4cc\	&	.	.	.	.	.	.	.	.
8B/	.	.	.	.	.	.	.	.	.	.	.
!	!	!	!	!	!	!	!	!	!	!LO:LB:g=original	!
2A/	.	2ee\	di	2c\	di	4r	.	.	.	4r	.
.	.	.	.	.	.	4A/	&	.	.	4cc\	&
4r	.	4r	.	4r	.	2c/	di	4r	.	2ee\	di
4e\	&	4cc\	&	4A\	&	.	.	4a\	&	.	.
!	!	!LO:SIC:v:t=custos ee	!	!	!	!	!	!	!	!	!
2e\	di	2ee\	di	2.c\	di	4r	.	2.gny\	di	4r	.
.	.	.	.	.	.	4c/	&	.	.	4ee\	&
=24-	=24-	=24-	=24-	=24-	=24-	=24-	=24-	=24-	=24-	=24-	=24-
!	!	!LO:LB:g=original	!	!	!	!	!	!	!	!	!
1r	.	4r	.	.	.	4.e\	di	.	.	4.gg\	di
.	.	4ee\	&	4c\	trà	.	.	4g\	trà	.	.
.	.	.	.	.	.	8c/	trà	.	.	8ee\	trà
.	.	2gg\	di	4B\	quan-	4d\	quan-	4g\	quan-	4dd\	qua(n)-
!	!	!	!	!	!	!	!	!LO:SIC:v:t=custos cc	!	!	!
.	.	.	.	4c\	-to	4g\	-to	4e/	-to	4ee\	-to
!	!	!	!	!	!	!	!	!LO:LB:g=original	!	!	!
2.c/	trà	1r	.	8F\	gi-	4.a\	gi-	4.cc\	gi-	8a/	gi-
.	.	.	.	8G\	.	.	.	.	.	8b/	.
.	.	.	.	8A\	.	.	.	.	.	8cc\	.
.	.	.	.	8B\	.	16g\	.	16b\	.	8dd\	.
.	.	.	.	.	.	16f\	.	16a\	.	.	.
.	.	.	.	8c\	.	4e\	.	4g\	.	8ee\	.
.	.	.	.	8B\	.	.	.	.	.	8dd\	.
2c/	quan-	.	.	8A\	.	8f\	.	8a\	.	8cc\	.
.	.	.	.	8G\	.	8g\	.	8b\	.	8b/	.
=25-	=25-	=25-	=25-	=25-	=25-	=25-	=25-	=25-	=25-	=25-	=25-
.	-to	2r	.	8F\	.	4.a\	.	4.cc\	.	8a/	.
.	.	.	.	8G\	.	.	.	.	.	8b\	.
2c/	gi-	.	.	8A\	.	.	.	.	.	8cc\	.
!	!	!	!	!LO:SIC:v:t=custos c	!	!	!	!	!	!	!
.	.	.	.	8B\	.	16g\	.	16b\	.	8dd\	.
!	!	!	!	!	!	!LO:SIC:v:t=custos e	!	!	!	!	!
.	.	.	.	.	.	16f\	.	16a\	.	.	.
!	!	!	!	!	!	!LO:LB:g=original	!	!	!	!	!
!	!	!	!	!LO:LB:g=original	!	!	!	!	!	!	!
.	.	4r	.	8c\	.	4.e\	.	4g\	.	8ee\	.
.	.	.	.	8B\	.	.	.	.	.	8dd\	.
2c/	-ri in-	4ee\	&	8A\	.	.	.	8a\	.	8cc\	.
.	.	.	.	8G\	.	16f\	.	8b\	.	8b\	.
.	.	.	.	.	.	16g\	.	.	.	.	.
.	.	4ff\	di	4F/	-ri	4a\	.	4cc\	.	4a/	.
!LO:SIC:v:t=custos c	!	!	!	!	!	!	!	!	!	!	!
2c/	-tor-	4ff\	trà	4F/	in-	4f\	-ri in-	4cc\	ri in-	4a/	ri in-
.	.	4cc\	qua(n)-	4.F/	-tor-	2f\	-tor-	2a\	-tor-	4.a/	-tor-
!LO:LB:g=original	!	!	!	!	!	!	!	!	!	!	!
4.c/	.	4cc\	-to	.	.	.	.	.	.	.	.
.	.	.	.	16E/	.	.	.	.	.	16g/	.
!	!	!	!	!	!	!	!	!	!	!LO:SIC:v:t=custos e	!
.	.	.	.	16D/	.	.	.	.	.	16f/	.
=26-	=26-	=26-	=26-	=26-	=26-	=26-	=26-	=26-	=26-	=26-	=26-
!	!	!	!	!	!	!	!	!	!	!LO:LB:g=original	!
.	.	8cc\	gi-	2C/	.	2g\	-no	1cc	-no	2e/	.
16B/	.	8dd\	.	.	.	.	.	.	.	.	.
16A/	.	.	.	.	.	.	.	.	.	.	.
2G/	.	8ee\	.	.	.	.	.	.	.	.	.
.	.	8ff\	.	.	.	.	.	.	.	.	.
.	.	8gg\	.	2C/	-no	4r	.	.	.	2e/	-no
.	.	8ff\	.	.	.	.	.	.	.	.	.
4G/	-no	8ee\	.	.	.	4c/	&	.	.	.	.
.	.	8dd\	.	.	.	.	.	.	.	.	.
4r	.	8cc\	.	4r	.	2c/	di	2r	.	4r	.
.	.	8dd\	.	.	.	.	.	.	.	.	.
4G/	trà	8ee\	.	4C/	trà	.	.	.	.	4cc\	trà
.	.	8ff\	.	.	.	.	.	.	.	.	.
2c/	quan-	8gg\	.	2C/	quan-	4r	.	2g\	&	4cc\	qua(n)-
.	.	8ff\	.	.	.	.	.	.	.	.	.
.	.	8ee\	.	.	.	4e\	trà	.	.	4cc\	-to
!	!	!LO:SIC:v:t=custos cc	!	!	!	!	!	!	!	!	!
.	.	8dd\	.	.	.	.	.	.	.	.	.
=27-	=27-	=27-	=27-	=27-	=27-	=27-	=27-	=27-	=27-	=27-	=27-
!	!	!LO:LB:g=original	!	!	!	!	!	!	!	!	!
2c/	-to	4cc\	.	2C/	-to	4e\	qua(n)-	2g\	di	8cc\	gi-
.	.	.	.	.	.	.	.	.	.	8dd\	.
.	.	4cc\	-ri in-	.	.	4g\	-to	.	.	8ee\	.
.	.	.	.	.	.	.	.	.	.	8ff\	.
4.e\	gi-	4.cc\	-tor-	8C/	gi-	4.g\	gi-	2r	.	2gg\	.
.	.	.	.	8D/	.	.	.	.	.	.	.
.	.	.	.	8E/	.	.	.	.	.	.	.
16d\	.	16b/	.	8F/	.	16f\	.	.	.	.	.
16c\	.	16a/	.	.	.	16e\	.	.	.	.	.
4B/	.	2g/	.	8G\	.	4d\	.	2r	.	1gg	-ri
.	.	.	.	8F/	.	.	.	.	.	.	.
8c/	.	.	.	8E/	.	8e\	.	.	.	.	.
8d\	.	.	.	8D/	.	8f\	.	.	.	.	.
4.e\	.	2g/	-no	8C/	.	4.g\	.	4r	.	.	.
.	.	.	.	8D/	.	.	.	.	.	.	.
.	.	.	.	8E/	.	.	.	4g\	tra	.	.
16d\	.	.	.	8F/	.	16f\	.	.	.	.	.
16c\	.	.	.	.	.	16e\	.	.	.	.	.
=28-	=28-	=28-	=28-	=28-	=28-	=28-	=28-	=28-	=28-	=28-	=28-
4B/	-ri	1r	.	4G\	.	2d\	.	2g\	quan-	4r	.
4B/	in-	.	.	4G\	-ri in-	.	.	.	.	4g/	in
!	!	!	!	!	!	!LO:SIC:v:t=custos d	!	!LO:SIC:v:t=custos f	!	!	!
4.B/	-tor-	.	.	4.G\	-tor-	2d\	-ri in-	2g\	-to	8g/	tor-
.	.	.	.	.	.	.	.	.	.	8a/	.
.	.	.	.	.	.	.	.	.	.	8b/	.
16A/	.	.	.	16F/	.	.	.	.	.	8cc\	.
!LO:SIC:v:t=custos A	!	!	!	!	!	!	!	!	!	!	!
16G/	.	.	.	16E/	.	.	.	.	.	.	.
!	!	!	!	!	!	!	!	!LO:LB:g=original	!	!	!
!	!	!	!	!	!	!LO:LB:g=original	!	!	!	!	!
!LO:LB:g=original	!	!	!	!	!	!	!	!	!	!	!
1A	.	2r	.	1D	.	8d\	-tor-	8fny\	gi-	0dd	.
.	.	.	.	.	.	8c\	.	8e\	.	.	.
.	.	.	.	.	.	8d\	.	8f\	.	.	.
.	.	.	.	.	.	8e\	.	8g\	.	.	.
.	.	4r	.	.	.	8f\	.	8a\	.	.	.
.	.	.	.	.	.	8e\	.	8g\	.	.	.
.	.	2a/	in-	.	.	8d\	.	8f\	.	.	.
.	.	.	.	.	.	8c\	.	8e\	.	.	.
=29-	=29-	=29-	=29-	=29-	=29-	=29-	=29-	=29-	=29-	=29-	=29-
1A	-no	.	.	1D	-no	4.d\	.	4f#X\	ri	.	.
.	.	4.dd\	-tor-	.	.	.	.	2g\	in-	.	.
.	.	.	.	.	.	16c/	.	.	.	.	.
.	.	.	.	.	.	16B/	.	.	.	.	.
.	.	.	.	.	.	2A/	.	.	.	.	.
.	.	16cc\	.	.	.	.	.	.	.	.	.
.	.	16b\	.	.	.	.	.	.	.	.	.
.	.	4a/	.	.	.	.	.	4f#X\	-tor-	.	.
1r	.	1b	-no	4G\	Quan-	1G	-no	1g	-no	1dd	-no
.	.	.	.	8G\	-do	.	.	.	.	.	.
.	.	.	.	8A\	ve-	.	.	.	.	.	.
.	.	.	.	4B\	-deſ-	.	.	.	.	.	.
.	.	.	.	4G\	-tu	.	.	.	.	.	.
=30-	=30-	=30-	=30-	=30-	=30-	=30-	=30-	=30-	=30-	=30-	=30-
4g\	Quan-	4ee\	Quan-	1c	mai	1r	.	2r	.	4cc\	Qua(n)-
8g\	-do	8ee\	-do	.	.	.	.	.	.	8cc\	-do
8f\	ve-	8ff\	ve-	.	.	.	.	.	.	8dd\	ve-
4e\	-deſ-	4gg\	-deſ-	.	.	.	.	4g\	Quan-	4ee\	-deſ-
4c/	-tu	4ee\	-tu	.	.	.	.	8g\	-do	4gg\	-tu
.	.	.	.	.	.	.	.	8a\	ve-	.	.
2g\	mai	1dd	mai	4G\	Qua(n)-	4B/	Quan-	4bn\	-deſ-	1gg	mai
.	.	.	.	8G\	-do	8B/	-do	4g\	-tu	.	.
.	.	.	.	8A\	ve-	8c/	ve-	.	.	.	.
2r	.	.	.	4B\	-deſ-	4d\	-deſ-	1g\	mai	.	.
!	!	!	!	!LO:SIC:v:t=custos c	!	!	!	!	!	!	!
.	.	.	.	4G\	-tu	4B/	-tu	.	.	.	.
=31-	=31-	=31-	=31-	=31-	=31-	=31-	=31-	=31-	=31-	=31-	=31-
!	!	!	!	!LO:LB:g=original	!	!	!	!	!	!	!
0r	.	4r	.	2c\	mai	2e\	mai	.	.	4r	.
.	.	4.cc\	co-	.	.	.	.	.	.	4.ee\	co-
.	.	.	.	2r	.	2r	.	2r	.	.	.
.	.	8cc\	-pia	.	.	.	.	.	.	8ee\	-pia
!	!	!LO:SIC:v:t=custos b	!	!	!	!	!	!	!	!LO:SIC:v:t=custos dd	!
.	.	4cc\	più	.	.	.	.	.	.	4ee\	più
!	!	!	!	!	!	!	!	!	!	!LO:LB:g=original	!
!	!	!LO:LB:g=original	!	!	!	!	!	!	!	!	!
.	.	2b/	bel-	1r	.	1r	.	1r	.	2dd\	bel-
.	.	2cc\	-la	.	.	.	.	.	.	2cc\	-la
=32-	=32-	=32-	=32-	=32-	=32-	=32-	=32-	=32-	=32-	=32-	=32-
4e\	Quan-	4ee\	Quan-	4C/	Quan-	1r	.	4cc\	Quan-	4gg\	Qua(n)-
8e\	-do	8ee\	-do	8C/	-do	.	.	8cc\	-do	8gg\	-do
!	!	!	!	!	!	!	!	!LO:SIC:v:t=custos g	!	!	!
8d\	ve-	8ff\	ve-	8D/	ve-	.	.	8a\	ve-	8ff\	ve-
!	!	!	!	!	!	!	!	!LO:LB:g=original	!	!	!
4B/	-deſ-	4gg\	-deſ-	4E/	-deſ-	.	.	4.g\	-deſ-	4ee\	-deſ-
4c/	-tu	4ee\	-tu	4C/	-tu	.	.	.	.	4gg\	-tu
.	.	.	.	.	.	.	.	8a\	-tu	.	.
2d\	mai	2dd\	mai	2G\	mai	4r	.	4b\	mai	2gg\	mai
.	.	.	.	.	.	4.g\	co-	4.b\	co-	.	.
2r	.	2r	.	2r	.	.	.	.	.	2r	.
.	.	.	.	.	.	8g\	-pia	8b\	-pia	.	.
!	!	!	!	!	!	!LO:SIC:v:t=custos f	!	!	!	!	!
.	.	.	.	.	.	4g\	più	4b\	più	.	.
=33-	=33-	=33-	=33-	=33-	=33-	=33-	=33-	=33-	=33-	=33-	=33-
!	!	!	!	!	!	!LO:LB:g=original	!	!	!	!	!
2r	.	0r	.	2r	.	2f#X\	bel-	2a\	bel-	0r	.
4r	.	.	.	4lr	.	2g\	-la	2g\	-la	.	.
4.e\	co-	.	.	4.c\	co-	.	.	.	.	.	.
.	.	.	.	.	.	1r	.	1r	.	.	.
8e\	-pia	.	.	8c\	-pia	.	.	.	.	.	.
4e\	più	.	.	4c\	più	.	.	.	.	.	.
!LO:SIC:v:t=custos c	!	!	!	!	!	!	!	!	!	!	!
2d\	bel-	.	.	2B\	bel-	.	.	.	.	.	.
=34-	=34-	=34-	=34-	=34-	=34-	=34-	=34-	=34-	=34-	=34-	=34-
!LO:LB:g=original	!	!	!	!	!	!	!	!	!	!	!
4c/	-la	4r	.	4c\	-la	4r	.	4r	.	4r	.
4.c/	co-	4.ee\	co-	4.C/	co-	4.e\	co-	4.g\	co-	4.cc\	co-
8c/	-pia	8ee\	-pia	8C/	-pia	8e\	-pia	8g\	-pia	8cc\	-pia
4G/	più	4ee\	più	4C/	piu	4e\	piu	4g\	piu	2cc\	piu
1G	bel-	4.gg\	bel-	1G	bel-	1d	bel-	1g	bel-	.	.
.	.	.	.	.	.	.	.	.	.	8b/	bel-
.	.	16ff\	.	.	.	.	.	.	.	8a/	.
.	.	16ee\	.	.	.	.	.	.	.	.	.
.	.	2dd\	.	.	.	.	.	.	.	2b/	.
=35-	=35-	=35-	=35-	=35-	=35-	=35-	=35-	=35-	=35-	=35-	=35-
00G	-la.	00ee	-la.	00C	-la.	00c	-la.	00g	-la.	00cc	-la.
=36-	=36-	=36-	=36-	=36-	=36-	=36-	=36-	=36-	=36-	=36-	=36-
.	.	.	.	.	.	.	.	.	.	.	.
=-	=-	=-	=-	=-	=-	=-	=-	=-	=-	=-	=-
*-	*-	*-	*-	*-	*-	*-	*-	*-	*-	*-	*-
!!!system-decoration: [(s1,s2,s3,s4,s5,s6)]
!!!ENC: Filip Voros
!!!END: 2022-06-14
!!!ENC: Urszula Świątek
!!!END: 2022-07-24
